casedrop/img/icons/ticket-sale.svg

<svg width="21" height="21" viewBox="0 0 21 21" fill="none" xmlns="http://www.w3.org/2000/svg">
<path fill-rule="evenodd" clip-rule="evenodd" d="M8.69633 2.84375H12.3035C13.9158 2.84373 15.1925 2.84372 16.1915 2.97771C17.2195 3.11558 18.0513 3.40598 18.7075 4.06051C19.6084 4.95913 19.8273 6.19662 19.8964 7.83822L19.8972 7.85937C19.9033 8.00273 19.9095 8.14912 19.9041 8.27242C19.8983 8.40357 19.878 8.59297 19.7733 8.7801C19.7008 8.90951 19.6038 8.99903 19.5391 9.05258C19.4689 9.11068 19.3911 9.16335 19.3169 9.21016C19.1735 9.30055 18.9798 9.40879 18.7527 9.53558L18.7359 9.54494C18.3985 9.73341 18.1737 10.0914 18.1737 10.5C18.1737 10.9086 18.3985 11.2666 18.7359 11.4551L18.7527 11.4644C18.9798 11.5913 19.1736 11.6994 19.3169 11.7898C19.3911 11.8366 19.4689 11.8893 19.5391 11.9474C19.6038 12.001 19.7008 12.0905 19.7733 12.2199C19.878 12.4071 19.8983 12.5964 19.9041 12.7276C19.9095 12.8509 19.9033 12.9972 19.8972 13.1407L19.8964 13.1617C19.8273 14.8034 19.6084 16.0408 18.7075 16.9395C18.0513 17.594 17.2195 17.8844 16.1915 18.0223C15.1925 18.1562 13.9158 18.1562 12.3035 18.1562H8.69633C7.0841 18.1562 5.80743 18.1562 4.80834 18.0223C3.78039 17.8844 2.94853 17.594 2.29238 16.9395C1.39152 16.0408 1.17255 14.8034 1.10354 13.1617L1.10265 13.1407C1.09659 12.9972 1.09042 12.8509 1.09583 12.7276C1.10161 12.5964 1.12189 12.4071 1.22662 12.2199C1.29909 12.0905 1.39616 12.001 1.46082 11.9474C1.53095 11.8893 1.60884 11.8366 1.68308 11.7898C1.82634 11.6994 2.0201 11.5912 2.24724 11.4644L2.26393 11.4551C2.60143 11.2666 2.82627 10.9086 2.82627 10.5C2.82627 10.0914 2.60143 9.73341 2.26393 9.54494L2.24722 9.53558C2.02009 9.40879 1.82634 9.30055 1.68308 9.21016C1.60883 9.16335 1.53095 9.11068 1.46082 9.05258C1.39615 8.99903 1.29909 8.90951 1.22662 8.7801C1.12189 8.59297 1.10161 8.40357 1.09583 8.27242C1.09042 8.14912 1.09659 8.00274 1.10265 7.85938C1.10295 7.85232 1.10324 7.84527 1.10354 7.83822C1.17255 6.19662 1.39152 4.95913 2.29238 4.06051C2.94853 3.40598 3.7804 3.11558 4.80834 2.97771C5.80743 2.84372 7.0841 2.84373 8.69633 2.84375ZM18.591 12.7612C18.591 12.7612 18.5911 12.762 18.5914 12.7641L18.591 12.7612ZM18.5931 12.8852C18.593 12.8909 18.5928 12.897 18.5927 12.9031C18.5912 12.9591 18.5885 13.0241 18.585 13.1066C18.5168 14.7307 18.2949 15.4972 17.7806 16.0102C17.4091 16.3809 16.9001 16.603 16.0171 16.7214C15.1154 16.8424 13.9269 16.8437 12.2543 16.8437H8.74559C7.07306 16.8437 5.88451 16.8424 4.9828 16.7214C4.0998 16.603 3.59082 16.3809 3.2193 16.0102C2.70498 15.4972 2.48315 14.7307 2.41488 13.1066C2.41141 13.0241 2.40869 12.9591 2.40726 12.9031C2.40709 12.897 2.40696 12.8909 2.40684 12.8852C2.51591 12.8179 2.67257 12.7302 2.90386 12.601C3.63873 12.1907 4.13877 11.4044 4.13877 10.5C4.13877 9.5956 3.63873 8.80932 2.90386 8.39898C2.67257 8.26983 2.51591 8.18211 2.40683 8.11476C2.40695 8.10903 2.40709 8.10307 2.40726 8.09688C2.40869 8.04091 2.41141 7.97587 2.41488 7.89335C2.48315 6.26932 2.70498 5.50278 3.2193 4.98974C3.59082 4.61914 4.0998 4.39699 4.9828 4.27857C5.88451 4.15764 7.07306 4.15625 8.74559 4.15625H12.2543C13.9269 4.15625 15.1154 4.15764 16.0171 4.27857C16.9001 4.39699 17.4091 4.61914 17.7806 4.98974C18.2949 5.50278 18.5168 6.26932 18.585 7.89336C18.5885 7.97587 18.5912 8.04091 18.5927 8.09687C18.5928 8.10307 18.593 8.10903 18.5931 8.11475C18.484 8.18211 18.3273 8.26983 18.0961 8.39898C17.3611 8.80932 16.8612 9.5956 16.8612 10.5C16.8612 11.4044 17.3611 12.1907 18.0961 12.601C18.3273 12.7302 18.484 12.8179 18.5931 12.8852ZM18.7018 8.04188L18.7008 8.04269C18.7045 8.03932 18.7052 8.03904 18.7018 8.04188ZM18.591 8.23881C18.591 8.23881 18.591 8.23778 18.5914 8.23592L18.591 8.23881ZM2.29813 8.04188C2.2947 8.03904 2.29542 8.03932 2.29911 8.04269L2.29813 8.04188ZM2.40855 8.23591C2.40887 8.23777 2.40895 8.23881 2.40895 8.23881L2.40855 8.23591ZM2.40895 12.7612C2.40895 12.7612 2.40887 12.7622 2.40855 12.7641L2.40895 12.7612ZM2.29912 12.9573C2.29542 12.9607 2.2947 12.9609 2.29813 12.9581L2.29912 12.9573ZM18.7008 12.9573L18.7018 12.9581C18.7052 12.9609 18.7045 12.9607 18.7008 12.9573ZM13.589 7.41096C13.8453 7.66724 13.8453 8.08276 13.589 8.33904L8.33899 13.589C8.08271 13.8453 7.6672 13.8453 7.41092 13.589C7.15463 13.3327 7.15463 12.9173 7.41092 12.661L12.6609 7.41096C12.9172 7.15468 13.3327 7.15468 13.589 7.41096Z" fill="white"/>
<path d="M13.5625 12.6875C13.5625 13.1708 13.1708 13.5625 12.6875 13.5625C12.2043 13.5625 11.8125 13.1708 11.8125 12.6875C11.8125 12.2042 12.2043 11.8125 12.6875 11.8125C13.1708 11.8125 13.5625 12.2042 13.5625 12.6875Z" fill="white"/>
<path d="M9.18746 8.3125C9.18746 8.79576 8.79572 9.1875 8.3125 9.1875C7.82925 9.1875 7.4375 8.79576 7.4375 8.3125C7.4375 7.82925 7.82925 7.4375 8.3125 7.4375C8.79572 7.4375 9.18746 7.82925 9.18746 8.3125Z" fill="white"/>
</svg>

<svg width="21" height="21" fill="none" xmlns="http://www.w3.org/2000/svg"><path fill-rule="evenodd" clip-rule="evenodd" d="M8.696 2.844h3.607c1.613 0 2.89 0 3.889.134 1.027.138 1.86.428 2.515 1.083.901.898 1.12 2.136 1.19 3.777v.021c.006.144.013.29.007.413a1.129 1.129 0 01-.13.508.98.98 0 01-.235.273c-.07.058-.148.11-.222.157-.143.09-.337.199-.564.326l-.017.009a1.093 1.093 0 000 1.91l.017.01c.227.126.42.234.564.325.074.047.152.1.222.157a.981.981 0 01.234.273c.105.187.125.376.131.508.006.123 0 .27-.007.413v.02c-.07 1.642-.289 2.88-1.19 3.778-.656.655-1.488.945-2.515 1.083-1 .134-2.276.134-3.889.134H8.697c-1.612 0-2.889 0-3.888-.134-1.028-.138-1.86-.428-2.516-1.082-.9-.9-1.12-2.137-1.188-3.778l-.001-.021a5.105 5.105 0 01-.007-.413 1.12 1.12 0 01.13-.508.981.981 0 01.235-.273c.07-.058.148-.11.222-.157.143-.09.337-.199.564-.326l.017-.009a1.093 1.093 0 000-1.91l-.017-.01c-.227-.126-.42-.234-.564-.325a2.136 2.136 0 01-.222-.157.98.98 0 01-.234-.273 1.12 1.12 0 01-.131-.508c-.006-.123 0-.27.007-.413v-.02c.07-1.642.289-2.88 1.19-3.778.656-.655 1.487-.945 2.515-1.083 1-.134 2.276-.134 3.888-.134zm9.895 9.917v.003-.003zm.002.124v.018l-.008.204c-.068 1.624-.29 2.39-.804 2.903-.372.37-.88.593-1.764.711-.902.121-2.09.123-3.763.123H8.746c-1.673 0-2.861-.002-3.763-.123-.883-.118-1.392-.34-1.764-.71-.514-.514-.736-1.28-.804-2.904a13.077 13.077 0 01-.008-.222c.109-.067.266-.155.497-.284a2.405 2.405 0 000-4.202c-.231-.13-.388-.217-.497-.284v-.018l.008-.204c.068-1.624.29-2.39.804-2.903.372-.37.88-.593 1.764-.711.902-.121 2.09-.123 3.763-.123h3.508c1.673 0 2.861.002 3.763.123.883.118 1.392.34 1.764.71.514.514.736 1.28.804 2.904l.008.204v.018c-.109.067-.266.155-.497.284a2.405 2.405 0 000 4.202c.231.13.388.217.497.284zm.109-4.843H18.7zm-.111.197v-.003.003zM2.298 8.042a.065.065 0 01.001 0zm.11.194l.001.003v-.003zm.001 4.525v.003-.003zm-.11.196a.048.048 0 010 .001zm16.402 0v.001zm-5.112-5.546a.656.656 0 010 .928l-5.25 5.25a.656.656 0 11-.928-.928l5.25-5.25a.656.656 0 01.928 0z" fill="#fff"/><path d="M13.563 12.688a.875.875 0 11-1.75 0 .875.875 0 011.75 0zM9.187 8.313a.875.875 0 11-1.75 0 .875.875 0 011.75 0z" fill="#fff"/></svg>
